azure-icons/command-1049-Queued.svg

<svg xmlns="http://www.w3.org/2000/svg" viewBox="0 0 16 16"><path d="M0 0h8v4h4v4h4v8H8v-4H4V8H0zm9 15h6V9H9zm-4-4h3V8h3V5H5zM1 7h3V4h3V1H1z"/></svg>

<svg xmlns="http://www.w3.org/2000/svg" viewBox="0 0 16 16"><title>Asset 61</title><path d="M0,0H8V4h4V8h4v8H8V12H4V8H0ZM9,15h6V9H9ZM5,11H8V8h3V5H5ZM1,7H4V4H7V1H1Z"/></svg>
